dist/icons/svgs/gear-outline.svg

<svg xmlns="http://www.w3.org/2000/svg" width="24" height="24" fill="currentcolor" class="icon-gear-outline" viewBox="0 0 24 24">
  <path d="M12 2C12.6641 2 13.2891 2.07812 13.9141 2.19531C14.2266 2.27344 14.7734 2.42969 15.0859 2.97656C15.1641 3.13281 15.2031 3.28906 15.2422 3.44531L15.6328 4.96875C15.6719 5.16406 16.0625 5.39844 16.2969 5.32031L17.7812 4.89062C17.9375 4.85156 18.0938 4.8125 18.25 4.8125C18.875 4.8125 19.3047 5.20312 19.5 5.4375C20.3594 6.41406 21.0234 7.54688 21.4531 8.79688C21.5703 9.10938 21.6875 9.65625 21.3359 10.1641C21.2578 10.3203 21.1406 10.4375 21.0234 10.5547L19.9297 11.6484C19.7344 11.8047 19.7344 12.2344 19.9297 12.3906L21.0234 13.4844C21.1406 13.6016 21.2578 13.7188 21.3359 13.875C21.6484 14.3828 21.5312 14.9297 21.4531 15.2422C21.0234 16.4922 20.3594 17.625 19.5 18.6016C19.3047 18.8359 18.875 19.2266 18.25 19.2266C18.0938 19.2266 17.9375 19.1875 17.7812 19.1484L16.2969 18.6797C16.0625 18.6406 15.6719 18.8359 15.6328 19.0703L15.2422 20.5938C15.2031 20.75 15.1641 20.9062 15.0859 21.0625C14.7734 21.6094 14.2266 21.7656 13.9141 21.8438C13.2891 21.9609 12.6641 22 12 22C11.3359 22 10.6719 21.9609 10.0469 21.8438C9.73438 21.7656 9.1875 21.6094 8.875 21.0625C8.79688 20.9062 8.75781 20.75 8.71875 20.5938L8.32812 19.0703C8.28906 18.8359 7.89844 18.6406 7.70312 18.6797L6.21875 19.1484C6.0625 19.1875 5.86719 19.1875 5.71094 19.2266C5.08594 19.2266 4.65625 18.8359 4.46094 18.6016C3.60156 17.625 2.9375 16.4922 2.50781 15.2422C2.42969 14.9297 2.3125 14.3828 2.625 13.8359C2.70312 13.7188 2.82031 13.5625 2.9375 13.4453L4.07031 12.3906C4.22656 12.2344 4.22656 11.8047 4.07031 11.6484L2.9375 10.5547C2.82031 10.4375 2.70312 10.3203 2.625 10.1641C2.3125 9.65625 2.42969 9.10938 2.50781 8.79688C2.9375 7.54688 3.60156 6.41406 4.46094 5.4375C4.65625 5.20312 5.08594 4.8125 5.71094 4.8125C5.86719 4.8125 6.0625 4.85156 6.21875 4.89062L7.70312 5.32031C7.89844 5.39844 8.28906 5.16406 8.32812 4.96875L8.71875 3.44531C8.75781 3.28906 8.79688 3.13281 8.875 2.97656C9.1875 2.42969 9.73438 2.27344 10.0469 2.19531C10.6719 2.07812 11.3359 2 12 2ZM10.5156 4.03125L10.1641 5.39844C9.85156 6.64844 8.40625 7.50781 7.15625 7.15625L5.78906 6.72656C5.16406 7.50781 4.65625 8.36719 4.30469 9.30469L5.35938 10.2812C6.29688 11.1797 6.29688 12.8594 5.35938 13.7578L4.30469 14.7344C4.65625 15.6719 5.16406 16.5312 5.78906 17.3125L7.15625 16.8828C8.40625 16.5312 9.85156 17.3906 10.1641 18.6406L10.5156 20.0078C11.4531 20.2031 12.5078 20.2031 13.4844 20.0078L13.7969 18.6406C14.1094 17.3906 15.5547 16.5312 16.8047 16.8828L18.1719 17.3125C18.7969 16.5312 19.3047 15.6719 19.6562 14.7344L18.6406 13.7578C17.7031 12.8594 17.7031 11.1797 18.6406 10.2812L19.6562 9.30469C19.3047 8.36719 18.7969 7.50781 18.1719 6.72656L16.8047 7.15625C15.5938 7.50781 14.1094 6.64844 13.7969 5.39844L13.4844 4.03125C12.5078 3.83594 11.4531 3.83594 10.5156 4.03125ZM10.125 12C10.125 12.7031 10.4766 13.2891 11.0625 13.6406C11.6094 13.9922 12.3516 13.9922 12.9375 13.6406C13.4844 13.2891 13.875 12.7031 13.875 12C13.875 11.3359 13.4844 10.75 12.9375 10.3984C12.3516 10.0469 11.6094 10.0469 11.0625 10.3984C10.4766 10.75 10.125 11.3359 10.125 12ZM12 15.75C10.6328 15.75 9.42188 15.0469 8.71875 13.875C8.05469 12.7422 8.05469 11.2969 8.71875 10.125C9.42188 8.99219 10.6328 8.25 12 8.25C13.3281 8.25 14.5391 8.99219 15.2422 10.125C15.9062 11.2969 15.9062 12.7422 15.2422 13.875C14.5391 15.0469 13.3281 15.75 12 15.75Z"/>
</svg>

<svg xmlns="http://www.w3.org/2000/svg" width="24" height="24" fill="currentColor" class="icon-gear-outline" viewBox="0 0 24 24">
  <path d="M12 2c.664 0 1.29.078 1.914.195.313.078.86.235 1.172.782.078.156.117.312.156.468l.39 1.524c.04.195.43.43.665.351l1.484-.43c.157-.038.313-.077.469-.077.625 0 1.055.39 1.25.625a10 10 0 0 1 1.953 3.359c.117.312.235.86-.117 1.367a1.5 1.5 0 0 1-.313.39l-1.093 1.094c-.196.157-.196.586 0 .743l1.093 1.093c.118.118.235.235.313.391.312.508.195 1.055.117 1.367a10 10 0 0 1-1.953 3.36c-.195.234-.625.625-1.25.625-.156 0-.312-.04-.469-.079l-1.484-.468c-.235-.04-.625.156-.664.39l-.39 1.524c-.04.156-.079.312-.157.468-.313.547-.86.704-1.172.782-.625.117-1.25.156-1.914.156s-1.328-.04-1.953-.156c-.313-.078-.86-.235-1.172-.782a2.2 2.2 0 0 1-.156-.468l-.39-1.524c-.04-.234-.43-.43-.626-.39l-1.484.468c-.157.04-.352.04-.508.079-.625 0-1.055-.391-1.25-.625a10 10 0 0 1-1.953-3.36c-.078-.312-.195-.86.117-1.406.078-.117.195-.274.313-.39L4.07 12.39c.157-.157.157-.586 0-.743l-1.133-1.093a1.5 1.5 0 0 1-.312-.39c-.312-.509-.195-1.056-.117-1.368a10 10 0 0 1 1.953-3.36c.195-.234.625-.625 1.25-.625.156 0 .351.04.508.079l1.484.43c.195.077.586-.157.625-.352l.39-1.524c.04-.156.079-.312.157-.468.313-.547.86-.704 1.172-.782A10.7 10.7 0 0 1 12 2m-1.484 2.031-.352 1.367c-.312 1.25-1.758 2.11-3.008 1.758l-1.367-.43a9.4 9.4 0 0 0-1.484 2.579l1.054.976c.938.899.938 2.578 0 3.477l-1.054.976c.351.938.86 1.797 1.484 2.579l1.367-.43c1.25-.352 2.696.508 3.008 1.758l.352 1.367a7.6 7.6 0 0 0 2.968 0l.313-1.367c.312-1.25 1.758-2.11 3.008-1.758l1.367.43a9.4 9.4 0 0 0 1.484-2.579l-1.015-.976c-.938-.899-.938-2.578 0-3.477l1.015-.976a9.4 9.4 0 0 0-1.484-2.578l-1.367.43c-1.211.35-2.696-.509-3.008-1.759l-.313-1.367a7.6 7.6 0 0 0-2.968 0M10.125 12c0 .703.352 1.29.938 1.64.546.352 1.289.352 1.874 0 .547-.35.938-.937.938-1.64 0-.664-.39-1.25-.937-1.602-.586-.351-1.329-.351-1.876 0-.585.352-.937.938-.937 1.602M12 15.75c-1.367 0-2.578-.703-3.281-1.875-.664-1.133-.664-2.578 0-3.75C9.422 8.992 10.633 8.25 12 8.25c1.328 0 2.54.742 3.242 1.875.664 1.172.664 2.617 0 3.75-.703 1.172-1.914 1.875-3.242 1.875"/>
</svg>
